X: 397
T: À Travers La Vitre
R: reel
M: 4/4
K: Dmajor
F2AF BFAF|FFBF AFFF|F2AF FBAF|FBAG FDDD|
F2AF BFAF|FFBF AFFF|F2AF FBAF|1 dfec dBAG:|2 dfec dBAc||
d3e fedf|eAAG A3B|=c2AB cdeg|~f2ec dBAc|
dcde fedf|eAAG A3B|=c2AB cdeg|1 fgec dBAc:|2 ~f2ec dBAG||

